src/assets/hero/people.svg

<svg width="74" height="74" viewBox="0 0 74 74" fill="none" xmlns="http://www.w3.org/2000/svg">
<rect width="74" height="74" rx="10" fill="#3C2128"/>
<path d="M44.3064 52.8399V49.4265C44.3064 47.616 43.5872 45.8796 42.3069 44.5993C41.0267 43.3191 39.2903 42.5999 37.4798 42.5999H27.2398C25.4292 42.5999 23.6928 43.3191 22.4126 44.5993C21.1323 45.8796 20.4131 47.616 20.4131 49.4265V52.8399H44.3064Z" fill="#FE5784" stroke="#FE5784" stroke-width="3.41333" stroke-linecap="round" stroke-linejoin="round"/>
<path d="M44.3064 22.7589C46.1198 23.0793 47.0668 23.5721 47.9923 24.7681C48.9178 25.9641 49.42 27.4336 49.42 28.9459C49.42 30.4582 48.9178 31.9277 47.9923 33.1237C47.0668 34.3198 46.1198 34.9247 44.3064 35.2394C42.5998 35.2394 42.4576 35.1294 41.9598 34.9194C44.4523 30.7646 44.4523 26.4342 41.9598 23.0793C41.6398 23.0794 42.9198 22.5143 44.3064 22.7589Z" fill="#FE5784" stroke="#FE5784" stroke-width="3.41333" stroke-linecap="round" stroke-linejoin="round"/>
<path d="M54.5468 52.8396V49.4262C54.5456 47.9137 54.0422 46.4443 53.1155 45.2489C52.1888 44.0534 50.8913 43.1996 49.4268 42.8214C48.6801 42.8218 48.1041 42.7429 47.0801 42.8214C49.6401 46.4397 49.0001 50.2797 49.0001 52.8396H54.5468Z" fill="#FE5784" stroke="#FE5784" stroke-width="3.41333" stroke-linecap="round" stroke-linejoin="round"/>
<path d="M39.1865 28.9461C39.1865 32.7163 36.1301 35.7727 32.3599 35.7727C28.5896 35.7727 25.5332 32.7163 25.5332 28.9461C25.5332 25.1758 28.5896 22.1194 32.3599 22.1194C36.1301 22.1194 39.1865 25.1758 39.1865 28.9461Z" fill="#FE5784" stroke="#FE5784" stroke-width="3.41333" stroke-linecap="round" stroke-linejoin="round"/>
</svg>

<svg xmlns="http://www.w3.org/2000/svg" width="74" height="74" fill="none" viewBox="0 0 74 74"><rect width="74" height="74" fill="#3c2128" rx="10"/><path fill="#fe5784" stroke="#fe5784" stroke-linecap="round" stroke-linejoin="round" stroke-width="3.413" d="M44.306 52.84v-3.414A6.827 6.827 0 0 0 37.48 42.6H27.24a6.827 6.827 0 0 0-6.827 6.826v3.414zM44.306 22.759c1.814.32 2.76.813 3.686 2.01a6.83 6.83 0 0 1 0 8.355c-.925 1.196-1.872 1.8-3.686 2.115-1.706 0-1.848-.11-2.346-.32 2.492-4.154 2.492-8.485 0-11.84-.32 0 .96-.565 2.346-.32M54.547 52.84v-3.414a6.83 6.83 0 0 0-5.12-6.605c-.747 0-1.323-.078-2.347 0C49.64 46.44 49 50.28 49 52.84zM39.187 28.946a6.827 6.827 0 1 1-13.654 0 6.827 6.827 0 0 1 13.654 0"/></svg>
